assets/images/social/email-icon.svg

<svg xmlns="http://www.w3.org/2000/svg" xmlns:xlink="http://www.w3.org/1999/xlink" width="500" zoomAndPan="magnify" viewBox="0 0 375 374.999991" height="500" preserveAspectRatio="xMidYMid meet" version="1.0"><defs><clipPath id="0ad69465b4"><path d="M 147.015625 139 L 246.765625 139 L 246.765625 212.5625 L 147.015625 212.5625 Z M 147.015625 139 " clip-rule="nonzero"/></clipPath><clipPath id="966f3a3f34"><path d="M 165 118.0625 L 229 118.0625 L 229 159 L 165 159 Z M 165 118.0625 " clip-rule="nonzero"/></clipPath><clipPath id="3bf018f28b"><path d="M 147.015625 139 L 246.765625 139 L 246.765625 212.5625 L 147.015625 212.5625 Z M 147.015625 139 " clip-rule="nonzero"/></clipPath><clipPath id="5a5f318329"><path d="M 165 118.0625 L 229 118.0625 L 229 159 L 165 159 Z M 165 118.0625 " clip-rule="nonzero"/></clipPath></defs><g clip-path="url(#0ad69465b4)"><path fill="#000000" d="M 245.898438 153.558594 L 245.894531 153.554688 C 245.175781 151.488281 243.933594 149.617188 242.253906 148.140625 L 239.167969 145.417969 C 238.992188 145.265625 238.816406 145.121094 238.632812 144.976562 L 232.335938 140.003906 L 232.335938 149.800781 L 234.003906 151.117188 L 234.007812 151.125 C 234.449219 151.472656 234.859375 151.84375 235.246094 152.242188 L 234.078125 153.175781 L 197.269531 182.65625 L 159.941406 153.171875 L 158.691406 152.1875 C 159.058594 151.808594 159.449219 151.449219 159.863281 151.117188 L 161.609375 149.722656 L 161.609375 139.875 L 155.03125 145.136719 L 151.648438 148.140625 C 149.984375 149.621094 148.753906 151.492188 148.039062 153.550781 L 148.03125 153.5625 L 148.035156 153.5625 C 147.574219 154.898438 147.328125 156.308594 147.328125 157.75 L 147.328125 201.582031 C 147.328125 207.644531 152.265625 212.5625 158.351562 212.5625 L 235.597656 212.5625 C 241.683594 212.5625 246.621094 207.644531 246.621094 201.582031 L 246.621094 157.785156 C 246.617188 156.332031 246.367188 154.90625 245.898438 153.558594 Z M 155.035156 200.234375 L 155.035156 161.15625 C 155.035156 160.5 155.089844 159.855469 155.1875 159.21875 L 178.070312 177.292969 Z M 161.273438 204.882812 L 184.152344 182.09375 L 194.886719 190.578125 C 195.59375 191.132812 196.4375 191.40625 197.285156 191.40625 C 198.140625 191.40625 198.996094 191.125 199.699219 190.558594 L 210.0625 182.261719 L 232.777344 204.882812 Z M 238.910156 200.132812 L 216.105469 177.421875 L 238.757812 159.277344 C 238.855469 159.914062 238.910156 160.558594 238.910156 161.214844 Z M 238.910156 200.132812 " fill-opacity="1" fill-rule="nonzero"/></g><g clip-path="url(#966f3a3f34)"><path fill="#000000" d="M 165.570312 131.640625 L 165.570312 152.582031 L 172.359375 157.945312 L 172.359375 124.824219 L 221.589844 124.824219 L 221.589844 158.117188 L 228.378906 152.679688 L 228.378906 121.441406 C 228.378906 119.574219 226.859375 118.0625 224.984375 118.0625 L 168.964844 118.0625 C 167.089844 118.0625 165.570312 119.574219 165.570312 121.441406 Z M 165.570312 131.640625 " fill-opacity="1" fill-rule="nonzero"/></g><path fill="#000000" d="M 199.832031 153.839844 L 199.714844 153.839844 C 198.777344 156.375 197.085938 157.644531 194.632812 157.644531 C 192.792969 157.644531 191.308594 156.980469 190.183594 155.652344 C 189.054688 154.324219 188.492188 152.484375 188.492188 150.132812 C 188.492188 147.09375 189.273438 144.617188 190.832031 142.710938 C 192.394531 140.808594 194.273438 139.855469 196.472656 139.855469 C 198.460938 139.855469 199.707031 140.628906 200.214844 142.183594 L 200.296875 142.183594 L 200.496094 140.210938 L 204.996094 140.210938 C 204.398438 145.871094 204.097656 149.570312 204.097656 151.308594 C 204.097656 153.167969 204.601562 154.097656 205.617188 154.097656 C 206.683594 154.097656 207.5625 153.394531 208.257812 151.988281 C 208.949219 150.578125 209.296875 148.738281 209.296875 146.46875 C 209.296875 143.363281 208.304688 140.816406 206.316406 138.828125 C 204.332031 136.84375 201.558594 135.847656 197.996094 135.847656 C 194.183594 135.847656 191.011719 137.175781 188.488281 139.824219 C 185.960938 142.472656 184.695312 145.703125 184.695312 149.515625 C 184.695312 153.207031 185.8125 156.117188 188.046875 158.242188 C 190.28125 160.367188 193.363281 161.429688 197.296875 161.429688 C 200.296875 161.429688 203.046875 160.859375 205.539062 159.714844 L 205.539062 163.519531 C 203.257812 164.488281 200.324219 164.976562 196.738281 164.976562 C 191.816406 164.976562 187.8125 163.570312 184.726562 160.761719 C 181.636719 157.953125 180.09375 154.175781 180.09375 149.433594 C 180.09375 144.601562 181.742188 140.535156 185.035156 137.242188 C 188.328125 133.949219 192.570312 132.300781 197.757812 132.300781 C 202.558594 132.300781 206.441406 133.578125 209.410156 136.136719 C 212.375 138.691406 213.859375 142.0625 213.859375 146.246094 C 213.859375 149.6875 212.953125 152.445312 211.140625 154.523438 C 209.324219 156.601562 207.078125 157.640625 204.398438 157.640625 C 203.078125 157.640625 202.003906 157.289062 201.175781 156.585938 C 200.347656 155.882812 199.898438 154.96875 199.832031 153.839844 Z M 197.171875 143.320312 C 195.972656 143.320312 194.996094 144 194.242188 145.363281 C 193.488281 146.722656 193.113281 148.300781 193.113281 150.09375 C 193.113281 151.367188 193.367188 152.363281 193.882812 153.070312 C 194.394531 153.78125 195.058594 154.136719 195.871094 154.136719 C 197.125 154.136719 198.113281 153.464844 198.832031 152.125 C 199.554688 150.785156 199.914062 148.988281 199.914062 146.746094 C 199.914062 145.683594 199.664062 144.847656 199.164062 144.234375 C 198.664062 143.625 198 143.320312 197.171875 143.320312 Z M 197.171875 143.320312 " fill-opacity="1" fill-rule="nonzero"/><g clip-path="url(#3bf018f28b)"><path fill="#000000" d="M 245.898438 153.558594 L 245.894531 153.554688 C 245.175781 151.488281 243.933594 149.617188 242.253906 148.140625 L 239.167969 145.417969 C 238.992188 145.265625 238.816406 145.121094 238.632812 144.976562 L 232.335938 140.003906 L 232.335938 149.800781 L 234.003906 151.117188 L 234.007812 151.125 C 234.449219 151.472656 234.859375 151.84375 235.246094 152.242188 L 234.078125 153.175781 L 197.269531 182.65625 L 159.941406 153.171875 L 158.691406 152.1875 C 159.058594 151.808594 159.449219 151.449219 159.863281 151.117188 L 161.609375 149.722656 L 161.609375 139.875 L 155.03125 145.136719 L 151.648438 148.140625 C 149.984375 149.621094 148.753906 151.492188 148.039062 153.550781 L 148.03125 153.5625 L 148.035156 153.5625 C 147.574219 154.898438 147.328125 156.308594 147.328125 157.75 L 147.328125 201.582031 C 147.328125 207.644531 152.265625 212.5625 158.351562 212.5625 L 235.597656 212.5625 C 241.683594 212.5625 246.621094 207.644531 246.621094 201.582031 L 246.621094 157.785156 C 246.617188 156.332031 246.367188 154.90625 245.898438 153.558594 Z M 155.035156 200.234375 L 155.035156 161.15625 C 155.035156 160.5 155.089844 159.855469 155.1875 159.21875 L 178.070312 177.292969 Z M 161.273438 204.882812 L 184.152344 182.09375 L 194.886719 190.578125 C 195.59375 191.132812 196.4375 191.40625 197.285156 191.40625 C 198.140625 191.40625 198.996094 191.125 199.699219 190.558594 L 210.0625 182.261719 L 232.777344 204.882812 Z M 238.910156 200.132812 L 216.105469 177.421875 L 238.757812 159.277344 C 238.855469 159.914062 238.910156 160.558594 238.910156 161.214844 Z M 238.910156 200.132812 " fill-opacity="1" fill-rule="nonzero"/></g><g clip-path="url(#5a5f318329)"><path fill="#000000" d="M 165.570312 131.640625 L 165.570312 152.582031 L 172.359375 157.945312 L 172.359375 124.824219 L 221.589844 124.824219 L 221.589844 158.117188 L 228.378906 152.679688 L 228.378906 121.441406 C 228.378906 119.574219 226.859375 118.0625 224.984375 118.0625 L 168.964844 118.0625 C 167.089844 118.0625 165.570312 119.574219 165.570312 121.441406 Z M 165.570312 131.640625 " fill-opacity="1" fill-rule="nonzero"/></g><path fill="#000000" d="M 199.832031 153.839844 L 199.714844 153.839844 C 198.777344 156.375 197.085938 157.644531 194.632812 157.644531 C 192.792969 157.644531 191.308594 156.980469 190.183594 155.652344 C 189.054688 154.324219 188.492188 152.484375 188.492188 150.132812 C 188.492188 147.09375 189.273438 144.617188 190.832031 142.710938 C 192.394531 140.808594 194.273438 139.855469 196.472656 139.855469 C 198.460938 139.855469 199.707031 140.628906 200.214844 142.183594 L 200.296875 142.183594 L 200.496094 140.210938 L 204.996094 140.210938 C 204.398438 145.871094 204.097656 149.570312 204.097656 151.308594 C 204.097656 153.167969 204.601562 154.097656 205.617188 154.097656 C 206.683594 154.097656 207.5625 153.394531 208.257812 151.988281 C 208.949219 150.578125 209.296875 148.738281 209.296875 146.46875 C 209.296875 143.363281 208.304688 140.816406 206.316406 138.828125 C 204.332031 136.84375 201.558594 135.847656 197.996094 135.847656 C 194.183594 135.847656 191.011719 137.175781 188.488281 139.824219 C 185.960938 142.472656 184.695312 145.703125 184.695312 149.515625 C 184.695312 153.207031 185.8125 156.117188 188.046875 158.242188 C 190.28125 160.367188 193.363281 161.429688 197.296875 161.429688 C 200.296875 161.429688 203.046875 160.859375 205.539062 159.714844 L 205.539062 163.519531 C 203.257812 164.488281 200.324219 164.976562 196.738281 164.976562 C 191.816406 164.976562 187.8125 163.570312 184.726562 160.761719 C 181.636719 157.953125 180.09375 154.175781 180.09375 149.433594 C 180.09375 144.601562 181.742188 140.535156 185.035156 137.242188 C 188.328125 133.949219 192.570312 132.300781 197.757812 132.300781 C 202.558594 132.300781 206.441406 133.578125 209.410156 136.136719 C 212.375 138.691406 213.859375 142.0625 213.859375 146.246094 C 213.859375 149.6875 212.953125 152.445312 211.140625 154.523438 C 209.324219 156.601562 207.078125 157.640625 204.398438 157.640625 C 203.078125 157.640625 202.003906 157.289062 201.175781 156.585938 C 200.347656 155.882812 199.898438 154.96875 199.832031 153.839844 Z M 197.171875 143.320312 C 195.972656 143.320312 194.996094 144 194.242188 145.363281 C 193.488281 146.722656 193.113281 148.300781 193.113281 150.09375 C 193.113281 151.367188 193.367188 152.363281 193.882812 153.070312 C 194.394531 153.78125 195.058594 154.136719 195.871094 154.136719 C 197.125 154.136719 198.113281 153.464844 198.832031 152.125 C 199.554688 150.785156 199.914062 148.988281 199.914062 146.746094 C 199.914062 145.683594 199.664062 144.847656 199.164062 144.234375 C 198.664062 143.625 198 143.320312 197.171875 143.320312 Z M 197.171875 143.320312 " fill-opacity="1" fill-rule="nonzero"/></svg>

<svg xmlns="http://www.w3.org/2000/svg" width="500" height="500" viewBox="0 0 375 375">
  <defs>
    <clipPath id="a">
      <path d="M147.016 139h99.75v73.563h-99.75Zm0 0"/>
    </clipPath>
    <clipPath id="b">
      <path d="M165 118.063h64V159h-64Zm0 0"/>
    </clipPath>
    <clipPath id="c">
      <path d="M147.016 139h99.75v73.563h-99.75Zm0 0"/>
    </clipPath>
    <clipPath id="d">
      <path d="M165 118.063h64V159h-64Zm0 0"/>
    </clipPath>
  </defs>
  <g clip-path="url(#a)">
    <path d="m245.898 153.559-.003-.004a12.8 12.8 0 0 0-3.641-5.414l-3.086-2.723a15 15 0 0 0-.535-.441l-6.297-4.973v9.797l1.668 1.316.004.008q.66.521 1.238 1.117l-1.168.934-36.808 29.48-37.329-29.484-1.25-.984q.552-.572 1.172-1.07l1.746-1.395v-9.848l-6.578 5.262-3.383 3.004a12.9 12.9 0 0 0-3.609 5.41l-.008.012h.004a12.8 12.8 0 0 0-.707 4.187v43.832c0 6.063 4.938 10.98 11.024 10.98h77.246c6.086 0 11.023-4.917 11.023-10.98v-43.797a13 13 0 0 0-.723-4.226m-90.863 46.675v-39.078c0-.656.055-1.3.153-1.937l22.882 18.074Zm6.238 4.649 22.88-22.79 10.734 8.485a3.87 3.87 0 0 0 2.398.828 3.84 3.84 0 0 0 2.414-.847l10.363-8.297 22.715 22.62Zm77.637-4.75-22.805-22.711 22.653-18.145c.097.637.152 1.282.152 1.938Zm0 0"/>
  </g>
  <g clip-path="url(#b)">
    <path d="M165.57 131.64v20.942l6.79 5.363v-33.12h49.23v33.292l6.789-5.437V121.44a3.386 3.386 0 0 0-3.395-3.379h-56.02a3.386 3.386 0 0 0-3.394 3.38Zm0 0"/>
  </g>
  <path d="M199.832 153.84h-.117q-1.405 3.804-5.082 3.805-2.76 0-4.45-1.993-1.691-1.992-1.69-5.52c0-3.038.78-5.515 2.339-7.421q2.343-2.854 5.64-2.856 2.982-.002 3.743 2.329h.082l.2-1.973h4.5q-.9 8.49-.9 11.098-.001 2.789 1.52 2.789 1.6 0 2.64-2.11 1.039-2.115 1.04-5.52.001-4.658-2.98-7.64-2.977-2.978-8.32-2.98c-3.813 0-6.985 1.328-9.509 3.976q-3.792 3.974-3.793 9.692 0 5.537 3.352 8.726 3.35 3.188 9.25 3.188c3 0 5.75-.57 8.242-1.715v3.805c-2.281.968-5.215 1.457-8.8 1.457q-7.385-.002-12.012-4.215-4.634-4.214-4.633-11.328c0-4.832 1.648-8.899 4.941-12.192q4.94-4.94 12.723-4.941 7.2-.001 11.652 3.836 4.449 3.832 4.45 10.11 0 5.16-2.72 8.276-2.723 3.118-6.742 3.118-1.98 0-3.222-1.055-1.243-1.053-1.344-2.746m-2.66-10.52q-1.8 0-2.93 2.043-1.13 2.041-1.129 4.73c0 1.274.254 2.27.77 2.977q.769 1.067 1.988 1.067 1.882-.001 2.961-2.012c.723-1.34 1.082-3.137 1.082-5.379q0-1.592-.75-2.512-.75-.914-1.992-.914m0 0"/>
  <g clip-path="url(#c)">
    <path d="m245.898 153.559-.003-.004a12.8 12.8 0 0 0-3.641-5.414l-3.086-2.723a15 15 0 0 0-.535-.441l-6.297-4.973v9.797l1.668 1.316.004.008q.66.521 1.238 1.117l-1.168.934-36.808 29.48-37.329-29.484-1.25-.984q.552-.572 1.172-1.07l1.746-1.395v-9.848l-6.578 5.262-3.383 3.004a12.9 12.9 0 0 0-3.609 5.41l-.008.012h.004a12.8 12.8 0 0 0-.707 4.187v43.832c0 6.063 4.938 10.98 11.024 10.98h77.246c6.086 0 11.023-4.917 11.023-10.98v-43.797a13 13 0 0 0-.723-4.226m-90.863 46.675v-39.078c0-.656.055-1.3.153-1.937l22.882 18.074Zm6.238 4.649 22.88-22.79 10.734 8.485a3.87 3.87 0 0 0 2.398.828 3.84 3.84 0 0 0 2.414-.847l10.363-8.297 22.715 22.62Zm77.637-4.75-22.805-22.711 22.653-18.145c.097.637.152 1.282.152 1.938Zm0 0"/>
  </g>
  <g clip-path="url(#d)">
    <path d="M165.57 131.64v20.942l6.79 5.363v-33.12h49.23v33.292l6.789-5.437V121.44a3.386 3.386 0 0 0-3.395-3.379h-56.02a3.386 3.386 0 0 0-3.394 3.38Zm0 0"/>
  </g>
  <path d="M199.832 153.84h-.117q-1.405 3.804-5.082 3.805-2.76 0-4.45-1.993-1.691-1.992-1.69-5.52c0-3.038.78-5.515 2.339-7.421q2.343-2.854 5.64-2.856 2.982-.002 3.743 2.329h.082l.2-1.973h4.5q-.9 8.49-.9 11.098-.001 2.789 1.52 2.789 1.6 0 2.64-2.11 1.039-2.115 1.04-5.52.001-4.658-2.98-7.64-2.977-2.978-8.32-2.98c-3.813 0-6.985 1.328-9.509 3.976q-3.792 3.974-3.793 9.692 0 5.537 3.352 8.726 3.35 3.188 9.25 3.188c3 0 5.75-.57 8.242-1.715v3.805c-2.281.968-5.215 1.457-8.8 1.457q-7.385-.002-12.012-4.215-4.634-4.214-4.633-11.328c0-4.832 1.648-8.899 4.941-12.192q4.94-4.94 12.723-4.941 7.2-.001 11.652 3.836 4.449 3.832 4.45 10.11 0 5.16-2.72 8.276-2.723 3.118-6.742 3.118-1.98 0-3.222-1.055-1.243-1.053-1.344-2.746m-2.66-10.52q-1.8 0-2.93 2.043-1.13 2.041-1.129 4.73c0 1.274.254 2.27.77 2.977q.769 1.067 1.988 1.067 1.882-.001 2.961-2.012c.723-1.34 1.082-3.137 1.082-5.379q0-1.592-.75-2.512-.75-.914-1.992-.914m0 0"/>
</svg>
